X:1
T:Title
L:1/8
M:4/4
K:F
V:1 treble nm="Grand Piano, Staff"
V:1
 FG A2 G2 F2 | GA B2 A2 G2 | z c c2 A2 Bc | d2 c6 | AB c2 c2 A2 | F2 B2 A2 G2 | FGAB c2 A2 | %7
w: By~Traditional;~Arr.~by~Arthur~Sullivan * * * *|||||||
 G2 F6 | F2 E2 D2 E2 | G2 F2- F/ z/ E D2 | A2 G2 F2 E2 | D2 C6 | C2 c2 B2 A2 | GA B2 A2 G2 | %14
w: |||||||
 FGAB c2 A2 | G2 F6 |] %16
w: ||

